X:63
T:Gramackree Molly THO4.063
M:C
L:1/8
%Closing repeat missing at end of piece
%obvious transciption error, corrected.
Z:vmp. Peter Dunk 2010/11.from a transcription by Fynn Titford-Mock 2007
B:Thompson's Compleat Collection of 200 Favourite Country Dances Volume IV.
Q:1/4=140
K:D
D|A>BA>F B>cd>B|(A>F)(D>F) (E>D)(E>F)|A>BA>F B>cd>B|A>FE>F DD/D/ D:|
|:{ABc}d>cd>e !wedge!d!wedge!c!wedge!B!wedge!A|B>Ad>F A>BA>F|\
{Bc}d>cd>e !wedge!d!wedge!c!wedge!B!wedge!A|B>Ad>F [A4F4]|
{ABc}d>cB>A B>cd>g|(Tf/e/f/g/) A>f e>de>f|\
d>c!wedge!B>!wedge!A B>dg>b|{b/}a>f e>f dd/d/ [d2D2]:|
